icon/cg/border-style-dashed.svg

<svg width="24" height="24" fill="none" xmlns="http://www.w3.org/2000/svg"><path d="M4 11h4v2H4v-2ZM10 11h4v2h-4v-2ZM20 11h-4v2h4v-2Z" fill="currentColor"/></svg>

<svg viewBox="0 0 24 24" fill="none" xmlns="http://www.w3.org/2000/svg" height="1em" width="1em">
  <path d="M4 11H8V13H4V11Z" fill="currentColor"/>
  <path d="M10 11H14V13H10V11Z" fill="currentColor"/>
  <path d="M20 11H16V13H20V11Z" fill="currentColor"/>
</svg>
